**kern	**kern	**kern	**kern
*staff3	*staff4	*staff1	*staff2
*clefF4	*clefF4	*clefG2	*clefG2
*k[f#c#]	*k[f#c#]	*k[f#c#]	*k[f#c#]
*M2/4	*M2/4	*M2/4	*M2/4
*D:	*D:	*D:	*D:
=-	=-	=-	=-
2r	16r	[4E [4G [4c#	2r
.	(16AAALL 16AA	.	.
.	16BBB- 16BB-	.	.
.	16GGG#JJ 16GG#	.	.
.	4AAA) 4AA	16ELL] 16G] 16c#]	.
.	.	(16g	.
.	.	16e	.
.	.	16c#JJ)	.
=233	=233	=233	=233
2r	16r	[4F [4A [4d	2r
.	(16AAALL 16AA	.	.
.	16BBB- 16BB-	.	.
.	16GGG#JJ 16GG#	.	.
.	[4AAA) [4AA	16FLL] 16A] 16d]	.
.	.	(16a	.
.	.	16f	.
.	.	16dJJ)	.
=234	=234	=234	=234
16r	16AAA] 16AA]	16c#LL	2r
16A'LL	16r	16a' 16aa'	.
16B'	8r	16b' 16bb'	.
16c#'JJ	.	16cc#'JJ 16ccc#'	.
(16dLL	8A	(16ddLL 16ddd	.
16c#)	.	16cc#) 16ccc#	.
16d'	8r	16dd' 16ddd'	.
16e'JJ	.	16ee'JJ 16eee'	.
=235	=235	=235	=235
8d	8D	16ffLL 16fff	2r
.	.	(16ff	.
8r	8r	16dd	.
.	.	16aJJ)	.
4r	16r	16fLL	.
.	(16ALL	(16a	.
.	16F	16f	.
.	16DJJ)	16dJJ)	.
=236	=236	=236	=236
2r	16r	[4E [4G [4c#	2r
.	(16AAALL 16AA	.	.
.	16BBB- 16BB-	.	.
.	16GGG#JJ 16GG#	.	.
.	4AAA) 4AA	16ELL] 16G] 16c#]	.
.	.	(16g	.
.	.	16e	.
.	.	16c#JJ)	.
=237	=237	=237	=237
2r	16r	[4F [4A [4d	2r
.	(16AAALL 16AA	.	.
.	16BBB- 16BB-	.	.
.	16GGG#JJ 16GG#	.	.
.	[4AAA) [4AA	16FLL] 16A] 16d]	.
.	.	(16a	.
.	.	16f	.
.	.	16dJJ)	.
=238	=238	=238	=238
16r	16AAA] 16AA]	16c#LL	2r
16A'LL	16r	16a' 16aa'	.
16B'	8r	16b' 16bb'	.
16cn'JJ	.	16cc'JJ 16ccc'	.
(16c#LL	8A	(16cc#LL 16ccc#	.
16d)	.	16dd) 16ddd	.
16e'	8r	16ee' 16eee'	.
16c#'JJ	.	16cc#'JJ 16ccc#'	.
=239	=239	=239	=239
8d	8D	16ddLL 16ddd	2r
.	.	(16dd	.
8r	16r	16a	.
.	(16D	16fJJ	.
4r	16AALL	8d)	.
.	16FFJ	.	.
.	8DDJ)	8r	.
*	*	*clefF4	*
=240:|!	=240:|!	=240:|!	=240:|!
*-	*-	*-	*-
